svg/tailscale.svg

<?xml version="1.0" encoding="UTF-8"?>
<!-- Generated by Pixelmator Pro 3.3.2 -->
<svg width="512" height="512" viewBox="0 0 512 512" xmlns="http://www.w3.org/2000/svg" xmlns:xlink="http://www.w3.org/1999/xlink">
    <path id="Path" fill="#141414" stroke="none" d="M 127.683952 254.735809 C 127.683952 289.994751 99.100922 318.577789 63.841976 318.577789 C 28.583025 318.577789 0 289.994751 0 254.735809 C 0 219.476837 28.583025 190.893829 63.841976 190.893829 C 99.100922 190.893829 127.683952 219.476837 127.683952 254.735809 Z"/>
    <path id="path1" fill="#141414" stroke="none" d="M 318.577789 254.735809 C 318.577789 289.994751 289.994751 318.577789 254.735794 318.577789 C 219.476852 318.577789 190.893829 289.994751 190.893829 254.735809 C 190.893829 219.476837 219.476852 190.893829 254.735794 190.893829 C 289.994751 190.893829 318.577789 219.476837 318.577789 254.735809 Z"/>
    <path id="path2" fill="#141414" stroke="none" opacity="0.2" d="M 127.683952 445.629639 C 127.683952 480.888611 99.100922 509.471588 63.841976 509.471588 C 28.583025 509.471588 0 480.888611 0 445.629639 C 0 410.370667 28.583025 381.787659 63.841976 381.787659 C 99.100922 381.787659 127.683952 410.370667 127.683952 445.629639 Z"/>
    <path id="path3" fill="#141414" stroke="none" opacity="0.2" d="M 509.471588 445.629639 C 509.471588 480.888611 480.888611 509.471588 445.629639 509.471588 C 410.370667 509.471588 381.787659 480.888611 381.787659 445.629639 C 381.787659 410.370667 410.370667 381.787659 445.629639 381.787659 C 480.888611 381.787659 509.471588 410.370667 509.471588 445.629639 Z"/>
    <path id="path4" fill="#141414" stroke="none" d="M 318.577789 445.629639 C 318.577789 480.888611 289.994751 509.471588 254.735794 509.471588 C 219.476852 509.471588 190.893829 480.888611 190.893829 445.629639 C 190.893829 410.370667 219.476852 381.787659 254.735794 381.787659 C 289.994751 381.787659 318.577789 410.370667 318.577789 445.629639 Z"/>
    <path id="path5" fill="#141414" stroke="none" d="M 509.471588 254.735809 C 509.471588 289.994751 480.888611 318.577789 445.629639 318.577789 C 410.370667 318.577789 381.787659 289.994751 381.787659 254.735809 C 381.787659 219.476837 410.370667 190.893829 445.629639 190.893829 C 480.888611 190.893829 509.471588 219.476837 509.471588 254.735809 Z"/>
    <path id="path6" fill="#141414" stroke="none" opacity="0.2" d="M 127.683952 63.84198 C 127.683952 99.100922 99.100922 127.68396 63.841976 127.68396 C 28.583025 127.68396 0 99.100922 0 63.84198 C 0 28.583038 28.583025 0 63.841976 0 C 99.100922 0 127.683952 28.583038 127.683952 63.84198 Z"/>
    <path id="path7" fill="#141414" stroke="none" opacity="0.2" d="M 318.577789 63.84198 C 318.577789 99.100922 289.994751 127.68396 254.735794 127.68396 C 219.476852 127.68396 190.893829 99.100922 190.893829 63.84198 C 190.893829 28.583038 219.476852 0 254.735794 0 C 289.994751 0 318.577789 28.583038 318.577789 63.84198 Z"/>
    <path id="path8" fill="#141414" stroke="none" opacity="0.2" d="M 509.471588 63.84198 C 509.471588 99.100922 480.888611 127.68396 445.629639 127.68396 C 410.370667 127.68396 381.787659 99.100922 381.787659 63.84198 C 381.787659 28.583038 410.370667 0 445.629639 0 C 480.888611 0 509.471588 28.583038 509.471588 63.84198 Z"/>
</svg>

<svg xmlns="http://www.w3.org/2000/svg" width="512" height="512"><path fill="#141414" d="M127.684 254.736c0 35.259-28.583 63.842-63.842 63.842S0 289.995 0 254.736c0-35.26 28.583-63.842 63.842-63.842s63.842 28.583 63.842 63.842Zm190.894 0c0 35.259-28.583 63.842-63.842 63.842-35.26 0-63.842-28.583-63.842-63.842 0-35.26 28.583-63.842 63.842-63.842s63.842 28.583 63.842 63.842Z"/><path fill="#141414" d="M127.684 445.63c0 35.259-28.583 63.842-63.842 63.842S0 480.889 0 445.63c0-35.26 28.583-63.842 63.842-63.842s63.842 28.583 63.842 63.842Zm381.788 0c0 35.259-28.583 63.842-63.842 63.842-35.26 0-63.842-28.583-63.842-63.842 0-35.26 28.583-63.842 63.842-63.842s63.842 28.583 63.842 63.842Z" opacity=".2"/><path fill="#141414" d="M318.578 445.63c0 35.259-28.583 63.842-63.842 63.842-35.26 0-63.842-28.583-63.842-63.842 0-35.26 28.583-63.842 63.842-63.842s63.842 28.583 63.842 63.842Zm190.894-190.894c0 35.259-28.583 63.842-63.842 63.842-35.26 0-63.842-28.583-63.842-63.842 0-35.26 28.583-63.842 63.842-63.842s63.842 28.583 63.842 63.842Z"/><path fill="#141414" d="M127.684 63.842c0 35.259-28.583 63.842-63.842 63.842S0 99.101 0 63.842 28.583 0 63.842 0s63.842 28.583 63.842 63.842Zm190.894 0c0 35.259-28.583 63.842-63.842 63.842-35.26 0-63.842-28.583-63.842-63.842S219.477 0 254.736 0s63.842 28.583 63.842 63.842Zm190.894 0c0 35.259-28.583 63.842-63.842 63.842-35.26 0-63.842-28.583-63.842-63.842S410.37 0 445.63 0s63.842 28.583 63.842 63.842Z" opacity=".2"/></svg>
